COLOR/action 16/16/layer-raise.svg

<svg viewBox="0 0 16 16" xmlns="http://www.w3.org/2000/svg"><path d="m4 3-3 3h9l3-3zm0 8-3 3h5l3-3z" fill="#1a7fd4"/><path d="m5 7-3 3h5l3-3z" fill="#1a7fd4"/><path d="m12.5 6.441407c-.459054.742041-.899509 1.495383-1.320313 2.259765-.416662.76226-.809863 1.538167-1.1796874 2.324219h2.0000004v3.474609h1v-3.476562h2c-.348-.76-.737016-1.534266-1.166016-2.322266-.422519-.765861-.86736-1.51995-1.333984-2.259765z" fill="#e95420"/><path d="m12.5 3-2.5 2.5h-8.5l-.5.5h9l3-3zm.5 7.523438v.5h2c-.074981-.163752-.173174-.33493-.251953-.5zm-2.746094.001953c-.081732.168143-.174339.330882-.253906.5h2v-.5zm-1.753906.474609-2.5 2.5h-4.5l-.5.5h5l3-3zm3.5 3v.5h1v-.5z" fill="#000305" opacity=".2"/><path d="m4 3-3 3h.5l2.5-2.5h8.5l.5-.5zm8.5 3.4414062c-.459054.7420411-.899509 1.4953837-1.320312 2.2597657-.416663.76226-.809864 1.5381671-1.179688 2.3242191h.253906c.298155-.613382.598763-1.2259576.925782-1.8242191.420803-.764382.861258-1.5177245 1.320312-2.2597657.466624.7398152.911465 1.4939047 1.333984 2.2597657.336567.6182154.627215 1.2212131.914063 1.8222661h.251953c-.348-.76-.737016-1.5342661-1.166016-2.3222661-.422519-.765861-.86736-1.5199505-1.333984-2.2597657zm-8.5 4.5585938-3 3h.5l2.5-2.5h4.5l.5-.5z" fill="#fff" opacity=".3"/><path d="m5 7-3 3h.5l2.5-2.5h4.5l.5-.5z" fill="#fff" opacity=".3"/><path d="m7 10 3-3h-.5l-2.5 2.5h-4.5l-.5.5z" opacity=".2"/></svg>

<?xml version="1.0" encoding="UTF-8" standalone="no"?>
<svg
   xmlns:dc="http://purl.org/dc/elements/1.1/"
   xmlns:cc="http://creativecommons.org/ns#"
   xmlns:rdf="http://www.w3.org/1999/02/22-rdf-syntax-ns#"
   xmlns:svg="http://www.w3.org/2000/svg"
   xmlns="http://www.w3.org/2000/svg"
   xmlns:sodipodi="http://sodipodi.sourceforge.net/DTD/sodipodi-0.dtd"
   xmlns:inkscape="http://www.inkscape.org/namespaces/inkscape"
   viewBox="0 0 16 16"
   version="1.1"
   id="svg8"
   sodipodi:docname="layer-raise.svg"
   inkscape:version="0.92.4 (5da689c313, 2019-01-14)">
  <metadata
     id="metadata14">
    <rdf:RDF>
      <cc:Work
         rdf:about="">
        <dc:format>image/svg+xml</dc:format>
        <dc:type
           rdf:resource="http://purl.org/dc/dcmitype/StillImage" />
      </cc:Work>
    </rdf:RDF>
  </metadata>
  <defs
     id="defs12" />
  <sodipodi:namedview
     pagecolor="#ffffff"
     bordercolor="#666666"
     borderopacity="1"
     objecttolerance="10"
     gridtolerance="10"
     guidetolerance="10"
     inkscape:pageopacity="0"
     inkscape:pageshadow="2"
     inkscape:window-width="1920"
     inkscape:window-height="1016"
     id="namedview10"
     showgrid="false"
     inkscape:zoom="14.75"
     inkscape:cx="8"
     inkscape:cy="8"
     inkscape:window-x="0"
     inkscape:window-y="27"
     inkscape:window-maximized="1"
     inkscape:current-layer="svg8" />
  <path
     d="M 4,3 1,6 h 9 l 3,-3 z m 0,8 -3,3 h 5 l 3,-3 z"
     id="path2"
     inkscape:connector-curvature="0"
     style="fill:#1a7fd4" />
  <path
     d="m5 7-3 3h5l3-3z"
     fill="#1a7fd4"
     id="path4" />
  <path
     d="m 12.5,6.441407 c -0.459054,0.742041 -0.899509,1.495383 -1.320313,2.259765 -0.416662,0.76226 -0.809863,1.538167 -1.1796874,2.324219 H 12 V 14.5 h 1 v -3.476562 h 2 C 14.652,10.263438 14.262984,9.489172 13.833984,8.701172 13.411465,7.935311 12.966624,7.181222 12.5,6.441407 Z"
     id="path6"
     inkscape:connector-curvature="0"
     style="fill:#e95420" />
  <path
     style="fill:#000305;fill-opacity:1;opacity:0.2"
     d="M 12.5 3 L 10 5.5 L 1.5 5.5 L 1 6 L 10 6 L 13 3 L 12.5 3 z M 13 10.523438 L 13 11.023438 L 15 11.023438 C 14.925019 10.859686 14.826826 10.688508 14.748047 10.523438 L 13 10.523438 z M 10.253906 10.525391 C 10.172174 10.693534 10.079567 10.856273 10 11.025391 L 12 11.025391 L 12 10.525391 L 10.253906 10.525391 z M 8.5 11 L 6 13.5 L 1.5 13.5 L 1 14 L 6 14 L 9 11 L 8.5 11 z M 12 14 L 12 14.5 L 13 14.5 L 13 14 L 12 14 z "
     id="path821" />
  <path
     style="fill:#ffffff;fill-opacity:1;opacity:0.3"
     d="M 4 3 L 1 6 L 1.5 6 L 4 3.5 L 12.5 3.5 L 13 3 L 4 3 z M 12.5 6.4414062 C 12.040946 7.1834473 11.600491 7.9367899 11.179688 8.7011719 C 10.763025 9.4634319 10.369824 10.239339 10 11.025391 L 10.253906 11.025391 C 10.552061 10.412009 10.852669 9.7994334 11.179688 9.2011719 C 11.600491 8.4367899 12.040946 7.6834474 12.5 6.9414062 C 12.966624 7.6812214 13.411465 8.4353109 13.833984 9.2011719 C 14.170551 9.8193873 14.461199 10.422385 14.748047 11.023438 L 15 11.023438 C 14.652 10.263438 14.262984 9.4891719 13.833984 8.7011719 C 13.411465 7.9353109 12.966624 7.1812214 12.5 6.4414062 z M 4 11 L 1 14 L 1.5 14 L 4 11.5 L 8.5 11.5 L 9 11 L 4 11 z "
     id="path826" />
  <path
     d="M 5 7 L 2 10 L 2.5 10 L 5 7.5 L 9.5 7.5 L 10 7 L 5 7 z "
     id="path834"
     style="fill:#ffffff;fill-opacity:1;opacity:0.3" />
  <path
     style="opacity:0.2;fill:#000000;fill-opacity:1"
     id="path839"
     d="M 7,10 10,7 H 9.5 L 7,9.5 H 2.5 L 2,10 Z"
     inkscape:connector-curvature="0" />
</svg>
